X: 22130
T: Kung Fu Katie
R: reel
M: 4/4
K: Gmajor
Bd|:e2 gf eBBB|edef g2gf|eagf eBBB|Adde fagf|
ebgf eBBB|edef ggga|b2 af gfed|1 egba g2 B/c/d:|2 egba g2 dc||
|:B2 BB AGGG|Bddg edgd|B2 BB AGGG|EAAA EAGA|
B2 BB AGGG|Bddg ed B/c/d|e2 gg aged|1 egba g2 gd:|2 egba g2||

